X: 156
T: A draught of ale
C: anon.
O: Ireland
B: Francis O'Neill: "The Dance Music of Ireland" (1907) no. 156
R: Double jig
Z: Transcribed by Frank Nordberg - http://www.musicaviva.com
F: http://www.musicaviva.com/abc/tunes/ireland/oneill-1001/oneill-1001-015
6.abc
M: 6/8
L: 1/8
K: G
D|G(BA) G2B|def gd(B|G)BA G2B|AFD AFD|G(BA) G2B|def gfg|ecA dB(G|c)AF G2:
|
|:B|ded dcB|def gdB|ded dcB|AFD AFD|ded dcB|def gfg|ecA dB(G|c)AF G2:|
W:
W:
W: From Musica Viva - http://www.musicaviva.com
W: the Internet center for free sheet music downloads.


